images/indikatorenset/4231.svg

<?xml version="1.0" standalone="no"?><!DOCTYPE svg PUBLIC "-//W3C//DTD SVG 1.1//EN" "http://www.w3.org/Graphics/SVG/1.1/DTD/svg11.dtd"><svg xmlns:xlink="http://www.w3.org/1999/xlink" version="1.1" class="highcharts-root" style="font-family:arial;font-size:9pt;" xmlns="http://www.w3.org/2000/svg" width="485" height="415"><desc>Created with Highstock 5.0.14</desc><defs><clipPath id="highcharts-x8uj56v-7"><rect x="0" y="0" width="423" height="235" fill="none"></rect></clipPath><clipPath id="highcharts-x8uj56v-8"><rect x="0" y="0" width="423" height="235" fill="none"></rect></clipPath></defs><rect fill="#fbfbfb" class="highcharts-background" x="0" y="0" width="485" height="415" rx="0" ry="0"></rect><rect fill="none" class="highcharts-plot-background" x="52" y="109" width="423" height="235"></rect><g class="highcharts-label" style="cursor:pointer;" transform="translate(10,451)"><text x="0" y="0"><tspan>&gt; Indikator-Details</tspan></text></g><g class="highcharts-pane-group"></g><g class="highcharts-grid highcharts-xaxis-grid "><path fill="none" class="highcharts-grid-line" d="M 84.5 109 L 84.5 344" opacity="1"></path><path fill="none" class="highcharts-grid-line" d="M 116.5 109 L 116.5 344" opacity="1"></path><path fill="none" class="highcharts-grid-line" d="M 149.5 109 L 149.5 344" opacity="1"></path><path fill="none" class="highcharts-grid-line" d="M 181.5 109 L 181.5 344" opacity="1"></path><path fill="none" class="highcharts-grid-line" d="M 214.5 109 L 214.5 344" opacity="1"></path><path fill="none" class="highcharts-grid-line" d="M 246.5 109 L 246.5 344" opacity="1"></path><path fill="none" class="highcharts-grid-line" d="M 279.5 109 L 279.5 344" opacity="1"></path><path fill="none" class="highcharts-grid-line" d="M 311.5 109 L 311.5 344" opacity="1"></path><path fill="none" class="highcharts-grid-line" d="M 344.5 109 L 344.5 344" opacity="1"></path><path fill="none" class="highcharts-grid-line" d="M 376.5 109 L 376.5 344" opacity="1"></path><path fill="none" class="highcharts-grid-line" d="M 409.5 109 L 409.5 344" opacity="1"></path><path fill="none" class="highcharts-grid-line" d="M 441.5 109 L 441.5 344" opacity="1"></path><path fill="none" class="highcharts-grid-line" d="M 474.5 109 L 474.5 344" opacity="1"></path><path fill="none" class="highcharts-grid-line" d="M 51.5 109 L 51.5 344" opacity="1"></path></g><g class="highcharts-grid highcharts-yaxis-grid "><path fill="none" stroke="#e6e6e6" stroke-width="1" class="highcharts-grid-line" d="M 52 344.5 L 475 344.5" opacity="1"></path><path fill="none" stroke="#e6e6e6" stroke-width="1" class="highcharts-grid-line" d="M 52 285.5 L 475 285.5" opacity="1"></path><path fill="none" stroke="#e6e6e6" stroke-width="1" class="highcharts-grid-line" d="M 52 227.5 L 475 227.5" opacity="1"></path><path fill="none" stroke="#e6e6e6" stroke-width="1" class="highcharts-grid-line" d="M 52 168.5 L 475 168.5" opacity="1"></path><path fill="none" stroke="#e6e6e6" stroke-width="1" class="highcharts-grid-line" d="M 52 108.5 L 475 108.5" opacity="1"></path></g><g class="highcharts-grid highcharts-yaxis-grid "></g><rect fill="none" class="highcharts-plot-border" x="52" y="109" width="423" height="235"></rect><g class="highcharts-axis highcharts-xaxis "><path fill="none" class="highcharts-axis-line" stroke="#ccd6eb" stroke-width="1" d="M 52 344.5 L 475 344.5"></path></g><g class="highcharts-axis highcharts-yaxis "><path fill="none" class="highcharts-axis-line" d="M 52 109 L 52 344"></path></g><g class="highcharts-axis highcharts-yaxis "><path fill="none" class="highcharts-axis-line" d="M 475 109 L 475 344"></path></g><g class="highcharts-series-group"><g class="highcharts-series highcharts-series-0 highcharts-line-series highcharts-color-undefined " transform="translate(52,109) scale(1 1)" clip-path="url(#highcharts-x8uj56v-8)"><path fill="none" d="M 16.269230769231 18.80000000000001 L 48.807692307692 84.6 L 81.346153846154 103.4 L 113.88461538462 122.2 L 146.42307692308 138.64999999999998 L 178.96153846154 103.4 L 211.5 117.5 L 244.03846153846 101.04999999999998 L 276.57692307692 136.3 L 309.11538461538 133.95 L 341.65384615385 117.5 L 374.19230769231 136.3 L 406.73076923077 126.9" class="highcharts-graph" stroke="#FF8028" stroke-width="2" stroke-linejoin="round" stroke-linecap="round"></path></g><g class="highcharts-markers highcharts-series-0 highcharts-line-series highcharts-color-undefined " transform="translate(52,109) scale(1 1)" clip-path="none"></g><g class="highcharts-series highcharts-series-1 highcharts-line-series highcharts-color-undefined " transform="translate(52,109) scale(1 1)" clip-path="url(#highcharts-x8uj56v-8)"><path fill="none" d="M 113.88461538462 173.9 L 146.42307692308 185.65 L 178.96153846154 148.05 L 211.5 178.6 L 244.03846153846 162.15 L 276.57692307692 176.25 L 309.11538461538 178.6 L 341.65384615385 155.1 L 374.19230769231 152.75 L 406.73076923077 185.65" class="highcharts-graph" stroke="#B375AB" stroke-width="2" stroke-linejoin="round" stroke-linecap="round"></path></g><g class="highcharts-markers highcharts-series-1 highcharts-line-series highcharts-color-undefined " transform="translate(52,109) scale(1 1)" clip-path="none"></g><g class="highcharts-series highcharts-series-2 highcharts-line-series highcharts-color-undefined " transform="translate(52,109) scale(1 1)" clip-path="url(#highcharts-x8uj56v-8)"><path fill="none" d="M 16.269230769231 47 L 48.807692307692 47 L 81.346153846154 47 L 113.88461538462 47 L 146.42307692308 47 L 178.96153846154 47 L 211.5 47 L 244.03846153846 47 L 276.57692307692 47 L 309.11538461538 47 L 341.65384615385 47 L 374.19230769231 47 L 406.73076923077 47" class="highcharts-graph" stroke="#444444" stroke-width="2" stroke-dasharray="6,2"></path></g><g class="highcharts-markers highcharts-series-2 highcharts-line-series highcharts-color-undefined " transform="translate(52,109) scale(1 1)" clip-path="none"></g></g><text x="10" text-anchor="start" class="highcharts-title" style="color:#000000;font-size:1.1em;font-weight:bold;fill:#000000;" y="20"><tspan>AOX-Fracht Abwasser</tspan></text><text x="10" text-anchor="start" class="highcharts-subtitle" style="color:#000000;font-size:0.9em;fill:#000000;" y="38"><tspan>Milligramm pro Liter</tspan></text><g class="highcharts-legend" transform="translate(10,40)"><rect fill="none" class="highcharts-legend-box" rx="0" ry="0" x="0" y="0" width="323" height="57" visibility="visible"></rect><g><g><g class="highcharts-legend-item highcharts-line-series highcharts-color-undefined highcharts-series-0" transform="translate(12,7)"><path fill="none" d="M 0 11 L 16 11" class="highcharts-graph" stroke="#FF8028" stroke-width="2"></path><text x="21" style="color:#333333;font-size:1em;font-weight:normal;cursor:pointer;fill:#333333;" text-anchor="start" y="15"><tspan>Kanton Basel-Stadt</tspan></text></g><g class="highcharts-legend-item highcharts-line-series highcharts-color-undefined highcharts-series-1" transform="translate(156.328125,7)"><path fill="none" d="M 0 11 L 16 11" class="highcharts-graph" stroke="#B375AB" stroke-width="2"></path><text x="21" y="15" style="color:#333333;font-size:1em;font-weight:normal;cursor:pointer;fill:#333333;" text-anchor="start"><tspan>Kanton Basel-Landschaft</tspan></text></g><g class="highcharts-legend-item highcharts-line-series highcharts-color-undefined highcharts-series-2" transform="translate(12,26)"><path fill="none" d="M 0 11 L 16 11" class="highcharts-graph" stroke-dasharray="6,2" stroke="#444444" stroke-width="2"></path><text x="21" y="15" style="color:#333333;font-size:1em;font-weight:normal;cursor:pointer;fill:#333333;" text-anchor="start"><tspan>Grenzwert (0,08 mg/l)</tspan></text></g></g></g></g><g class="highcharts-axis-labels highcharts-xaxis-labels "><text x="68.26923076923077" style="color:#000000;cursor:default;font-size:0.9em;fill:#000000;" text-anchor="middle" transform="translate(0,0)" y="363" opacity="1">2004</text><text x="100.8076923076923" style="color:#000000;cursor:default;font-size:0.9em;fill:#000000;" text-anchor="middle" transform="translate(0,0)" y="363" opacity="1">2005</text><text x="133.34615384615387" style="color:#000000;cursor:default;font-size:0.9em;fill:#000000;" text-anchor="middle" transform="translate(0,0)" y="363" opacity="1">2006</text><text x="165.8846153846154" style="color:#000000;cursor:default;font-size:0.9em;fill:#000000;" text-anchor="middle" transform="translate(0,0)" y="363" opacity="1">2007</text><text x="198.42307692307693" style="color:#000000;cursor:default;font-size:0.9em;fill:#000000;" text-anchor="middle" transform="translate(0,0)" y="363" opacity="1">2008</text><text x="230.96153846153848" style="color:#000000;cursor:default;font-size:0.9em;fill:#000000;" text-anchor="middle" transform="translate(0,0)" y="363" opacity="1">2009</text><text x="263.5" style="color:#000000;cursor:default;font-size:0.9em;fill:#000000;" text-anchor="middle" transform="translate(0,0)" y="363" opacity="1">2010</text><text x="296.03846153846155" style="color:#000000;cursor:default;font-size:0.9em;fill:#000000;" text-anchor="middle" transform="translate(0,0)" y="363" opacity="1">2011</text><text x="328.5769230769231" style="color:#000000;cursor:default;font-size:0.9em;fill:#000000;" text-anchor="middle" transform="translate(0,0)" y="363" opacity="1">2012</text><text x="361.11538461538464" style="color:#000000;cursor:default;font-size:0.9em;fill:#000000;" text-anchor="middle" transform="translate(0,0)" y="363" opacity="1">2013</text><text x="393.6538461538462" style="color:#000000;cursor:default;font-size:0.9em;fill:#000000;" text-anchor="middle" transform="translate(0,0)" y="363" opacity="1">2014</text><text x="426.19230769230774" style="color:#000000;cursor:default;font-size:0.9em;fill:#000000;" text-anchor="middle" transform="translate(0,0)" y="363" opacity="1">2015</text><text x="458.7307692307692" style="color:#000000;cursor:default;font-size:0.9em;fill:#000000;" text-anchor="middle" transform="translate(0,0)" y="363" opacity="1">2016</text></g><g class="highcharts-axis-labels highcharts-yaxis-labels "><text x="37" style="color:#000000;cursor:default;font-size:0.9em;fill:#000000;" text-anchor="end" transform="translate(0,0)" y="349" opacity="1"><tspan>0</tspan></text><text x="37" style="color:#000000;cursor:default;font-size:0.9em;fill:#000000;" text-anchor="end" transform="translate(0,0)" y="290" opacity="1"><tspan>0.025</tspan></text><text x="37" style="color:#000000;cursor:default;font-size:0.9em;fill:#000000;" text-anchor="end" transform="translate(0,0)" y="231" opacity="1"><tspan>0.05</tspan></text><text x="37" style="color:#000000;cursor:default;font-size:0.9em;fill:#000000;" text-anchor="end" transform="translate(0,0)" y="172" opacity="1"><tspan>0.075</tspan></text><text x="37" style="color:#000000;cursor:default;font-size:0.9em;fill:#000000;" text-anchor="end" transform="translate(0,0)" y="114" opacity="1"><tspan>0.1</tspan></text></g><g class="highcharts-axis-labels highcharts-yaxis-labels "></g><text x="10" class="highcharts-credits" text-anchor="start" style="cursor:default;color:#000000;font-size:0.8em;fill:#000000;" y="400"><tspan>Quelle: ProRheno AG; Amt für Industrielle Betriebe Basel-Landschaft; ARA Laufental-Lüsseltal</tspan></text></svg>

<svg class="highcharts-root" xmlns="http://www.w3.org/2000/svg" width="485" height="415" font-family="arial" font-size="12">
    <defs>
        <clipPath id="a">
            <path fill="none" d="M0 0h423v235H0z"/>
        </clipPath>
    </defs>
    <rect fill="#fbfbfb" class="highcharts-background" width="485" height="415" rx="0" ry="0"/>
    <path fill="none" class="highcharts-plot-background" d="M52 109h423v235H52z"/>
    <text transform="translate(10 451)" class="highcharts-label" cursor="pointer">
        <tspan>&gt; Indikator-Details</tspan>
    </text>
    <g class="highcharts-grid highcharts-xaxis-grid">
        <path fill="none" class="highcharts-grid-line" d="M84.5 109v235m32-235v235m33-235v235m32-235v235m33-235v235m32-235v235m33-235v235m32-235v235m33-235v235m32-235v235m33-235v235m32-235v235m33-235v235m-423-235v235"/>
    </g>
    <g class="highcharts-grid highcharts-yaxis-grid">
        <path fill="none" stroke="#e6e6e6" class="highcharts-grid-line" d="M52 344.5h423m-423-59h423m-423-58h423m-423-59h423m-423-60h423"/>
    </g>
    <path fill="none" class="highcharts-plot-border" d="M52 109h423v235H52z"/>
    <g class="highcharts-axis highcharts-xaxis">
        <path fill="none" class="highcharts-axis-line" stroke="#ccd6eb" d="M52 344.5h423"/>
    </g>
    <g class="highcharts-axis highcharts-yaxis">
        <path fill="none" class="highcharts-axis-line" d="M52 109v235"/>
    </g>
    <g class="highcharts-axis highcharts-yaxis">
        <path fill="none" class="highcharts-axis-line" d="M475 109v235"/>
    </g>
    <g class="highcharts-series-group">
        <g class="highcharts-series highcharts-series-0 highcharts-line-series highcharts-color-undefined" transform="translate(52 109)" clip-path="url(#a)">
            <path fill="none" d="M16.27 18.8l32.538 65.8 32.538 18.8 32.539 18.8 32.538 16.45 32.539-35.25 32.538 14.1 32.538-16.45 32.539 35.25 32.538-2.35 32.539-16.45 32.538 18.8 32.539-9.4" class="highcharts-graph" stroke="#FF8028" stroke-width="2" stroke-linejoin="round" stroke-linecap="round"/>
        </g>
        <g class="highcharts-series highcharts-series-1 highcharts-line-series highcharts-color-undefined" transform="translate(52 109)" clip-path="url(#a)">
            <path fill="none" d="M113.885 173.9l32.538 11.75 32.539-37.6L211.5 178.6l32.538-16.45 32.539 14.1 32.538 2.35 32.539-23.5 32.538-2.35 32.539 32.9" class="highcharts-graph" stroke="#B375AB" stroke-width="2" stroke-linejoin="round" stroke-linecap="round"/>
        </g>
        <g class="highcharts-series highcharts-series-2 highcharts-line-series highcharts-color-undefined" transform="translate(52 109)" clip-path="url(#a)">
            <path fill="none" d="M16.27 47h390.46" class="highcharts-graph" stroke="#444" stroke-width="2" stroke-dasharray="6,2"/>
        </g>
    </g>
    <text x="10" class="highcharts-title" y="20" color="#000" font-size="1.1em" font-weight="700">
        <tspan>AOX-Fracht Abwasser</tspan>
    </text>
    <text x="10" class="highcharts-subtitle" y="38" color="#000" font-size=".9em">
        <tspan>Milligramm pro Liter</tspan>
    </text>
    <g class="highcharts-legend" transform="translate(10 40)">
        <rect fill="none" class="highcharts-legend-box" rx="0" ry="0" width="323" height="57"/>
        <g class="highcharts-legend-item highcharts-line-series highcharts-color-undefined highcharts-series-0">
            <path fill="none" d="M12 18h16" class="highcharts-graph" stroke="#FF8028" stroke-width="2"/>
            <text x="21" y="15" color="#333" font-size="1em" font-weight="400" cursor="pointer" fill="#333" transform="translate(12 7)">
                <tspan>Kanton Basel-Stadt</tspan>
            </text>
        </g>
        <g class="highcharts-legend-item highcharts-line-series highcharts-color-undefined highcharts-series-1">
            <path fill="none" d="M156.328 18h16" class="highcharts-graph" stroke="#B375AB" stroke-width="2"/>
            <text x="21" y="15" color="#333" font-size="1em" font-weight="400" cursor="pointer" fill="#333" transform="translate(156.328 7)">
                <tspan>Kanton Basel-Landschaft</tspan>
            </text>
        </g>
        <g class="highcharts-legend-item highcharts-line-series highcharts-color-undefined highcharts-series-2">
            <path fill="none" d="M12 37h16" class="highcharts-graph" stroke-dasharray="6,2" stroke="#444" stroke-width="2"/>
            <text x="21" y="15" color="#333" font-size="1em" font-weight="400" cursor="pointer" fill="#333" transform="translate(12 26)">
                <tspan>Grenzwert (0,08 mg/l)</tspan>
            </text>
        </g>
    </g>
    <g class="highcharts-axis-labels highcharts-xaxis-labels" text-anchor="middle" color="#000" cursor="default" font-size=".9em">
        <text x="68.269" y="363">
            2004
        </text>
        <text x="100.808" y="363">
            2005
        </text>
        <text x="133.346" y="363">
            2006
        </text>
        <text x="165.885" y="363">
            2007
        </text>
        <text x="198.423" y="363">
            2008
        </text>
        <text x="230.962" y="363">
            2009
        </text>
        <text x="263.5" y="363">
            2010
        </text>
        <text x="296.038" y="363">
            2011
        </text>
        <text x="328.577" y="363">
            2012
        </text>
        <text x="361.115" y="363">
            2013
        </text>
        <text x="393.654" y="363">
            2014
        </text>
        <text x="426.192" y="363">
            2015
        </text>
        <text x="458.731" y="363">
            2016
        </text>
    </g>
    <g class="highcharts-axis-labels highcharts-yaxis-labels" text-anchor="end" color="#000" cursor="default" font-size=".9em">
        <text x="37" y="349">
            <tspan>0</tspan>
        </text>
        <text x="37" y="290">
            <tspan>0.025</tspan>
        </text>
        <text x="37" y="231">
            <tspan>0.05</tspan>
        </text>
        <text x="37" y="172">
            <tspan>0.075</tspan>
        </text>
        <text x="37" y="114">
            <tspan>0.1</tspan>
        </text>
    </g>
    <text x="10" class="highcharts-credits" y="400" cursor="default" color="#000" font-size=".8em">
        <tspan>Quelle: ProRheno AG; Amt für Industrielle Betriebe Basel-Landschaft; ARA Laufental-Lüsseltal</tspan>
    </text>
</svg>
